svg/fluentui-system-icons/ic_fluent_document_data_24_filled.svg

<svg width="24" height="24" viewBox="0 0 24 24" fill="none" xmlns="http://www.w3.org/2000/svg">
<path d="M12 8V2H6C4.89543 2 4 2.89543 4 4V20C4 21.1046 4.89543 22 6 22H18C19.1046 22 20 21.1046 20 20V10H14C12.8954 10 12 9.10457 12 8ZM12 12C12.4142 12 12.75 12.3358 12.75 12.75V18.25C12.75 18.6642 12.4142 19 12 19C11.5858 19 11.25 18.6642 11.25 18.25V12.75C11.25 12.3358 11.5858 12 12 12ZM8.75 16C9.16421 16 9.5 16.3358 9.5 16.75V18.25C9.5 18.6642 9.16421 19 8.75 19C8.33579 19 8 18.6642 8 18.25V16.75C8 16.3358 8.33579 16 8.75 16ZM15.25 14C15.6642 14 16 14.3358 16 14.75V18.25C16 18.6642 15.6642 19 15.25 19C14.8358 19 14.5 18.6642 14.5 18.25V14.75C14.5 14.3358 14.8358 14 15.25 14ZM13.5 8V2.5L19.5 8.5H14C13.7239 8.5 13.5 8.27614 13.5 8Z" fill="#212121"/>
</svg>

<svg xmlns="http://www.w3.org/2000/svg" width="24" height="24"><path d="M12 8V2H6a2 2 0 0 0-2 2v16a2 2 0 0 0 2 2h12a2 2 0 0 0 2-2V10h-6a2 2 0 0 1-2-2Zm0 4a.75.75 0 0 1 .75.75v5.5a.75.75 0 0 1-1.5 0v-5.5A.75.75 0 0 1 12 12Zm-3.25 4a.75.75 0 0 1 .75.75v1.5a.75.75 0 0 1-1.5 0v-1.5a.75.75 0 0 1 .75-.75Zm6.5-2a.75.75 0 0 1 .75.75v3.5a.75.75 0 0 1-1.5 0v-3.5a.75.75 0 0 1 .75-.75ZM13.5 8V2.5l6 6H14a.5.5 0 0 1-.5-.5Z"/></svg>
